X: 570
P: Longways for as many as will
M: C|
L: 1/8
K: Gdor
d2 (ef) (gf) (ed) | B2g2 G2(AB) | c2 de (fe) (dc) | A2f2 F2(Bc) |\
d2(ef) (gf) (ed) | (ef)g2 d2(cB) | (cB) (AG) ^F2A2 | G2 d4 |]

